cps(130/60/4)

d1
 $ every 2 (fast 2)
 $ loopAt 3
 $ slice 1 (slow "1" "[1-2]")
 $ sound "<p_drums:0> * 1"
 # gain 0.4
 # legato 5
 # room 0.7
 # size 0.7
 # shape 0.5 
 # orbit 0

d2 $ qtrigger
 $ striate 1
 $ slice 1 (slow "2" "[0]") 
 $ sound "<p_bass:0>"
 # gain 1.0
 # cut 1
 # orbit 1
 
hush 
